icon_installer/data/icons/scalable/actions/show-screenshot-recorded-symbolic.svg

<?xml version="1.0" encoding="UTF-8"?>
<svg height="16px" viewBox="0 0 16 16" width="16px" xmlns="http://www.w3.org/2000/svg">
    <path d="m 3.011719 1 c -1.652344 0 -3.011719 1.359375 -3.011719 3.011719 v 4.976562 c 0 1.652344 1.359375 3.011719 3.011719 3.011719 c 0.550781 0 1 -0.449219 1 -1 s -0.449219 -1 -1 -1 c -0.578125 0 -1.011719 -0.433594 -1.011719 -1.011719 v -4.976562 c 0 -0.578125 0.433594 -1.011719 1.011719 -1.011719 h 7.976562 c 0.578125 0 1.011719 0.433594 1.011719 1.011719 v 0.988281 c 0 0.550781 0.449219 1 1 1 s 1 -0.449219 1 -1 v -0.988281 c 0 -1.652344 -1.359375 -3.011719 -3.011719 -3.011719 z m 6.03125 5 c -0.566407 0 -1.019531 0.425781 -1.042969 0.964844 h -0.988281 c -1.113281 0 -2.011719 0.898437 -2.011719 2.011718 v 4.011719 c 0 1.113281 0.898438 2.011719 2.011719 2.011719 h 5.976562 c 1.113281 0 2.011719 -0.898438 2.011719 -2.011719 v -4.011719 c 0 -1.113281 -0.898438 -2.011718 -2.011719 -2.011718 h -0.988281 c -0.023438 -0.539063 -0.476562 -0.964844 -1.042969 -0.964844 z m 0.957031 3 c 1.105469 0 2 0.894531 2 2 s -0.894531 2 -2 2 s -2 -0.894531 -2 -2 s 0.894531 -2 2 -2 z m 0 0" fill="#222222"/>
</svg>

<svg xmlns="http://www.w3.org/2000/svg" width="16" height="16"><path fill="#222" d="M3.012 1A3.026 3.026 0 0 0 0 4.012v4.976A3.026 3.026 0 0 0 3.012 12c.55 0 1-.45 1-1s-.45-1-1-1A.988.988 0 0 1 2 8.988V4.012A.988.988 0 0 1 3.012 3h7.976A.988.988 0 0 1 12 4.012V5c0 .55.45 1 1 1s1-.45 1-1v-.988A3.026 3.026 0 0 0 10.988 1zm6.031 5c-.566 0-1.02.426-1.043.965h-.988A2.009 2.009 0 0 0 5 8.977v4.011C5 14.102 5.898 15 7.012 15h5.976A2.009 2.009 0 0 0 15 12.988V8.977a2.009 2.009 0 0 0-2.012-2.012H12c-.023-.54-.477-.965-1.043-.965zM10 9a2 2 0 1 1-2 2 2 2 0 0 1 2-2zm0 0"/></svg>
